X: 2
T: Simon's Wart
R: reel
M: 4/4
L: 1/8
K: Gmaj
|:E|DEDB, G,DGA|BABG Bdge|dBAG EFGA|BABG AGEG|
DEDB, G,DGA|BABG Bdge|dBAG EFGA|1 BcAB G3:|2 BcAB G3||
|:e|gagd egae|gage dBAG|EFGA Bded|BdgB A2B^d|
e^def gage|dBAG EFGE|DEDB, DEGB|1 AGAB G3:|2 AGAB GAG||

